X:1
T:POTPOURRIS
T:POTPOURRIS
T:din Opereta ”CRAIU - NOU”
T:C. G. Porumbescu
T:Balada
T:Ciprian Porumbescu
T:Eugen Pîrvu
T:Eugen Pîrvu
T:Eugen Pîrvu
T:Eugen Pîrvu
T:Eugen Pîrvu
T:Eugen Pîrvu
T:Eugen Pîrvu
T:Eugen Pîrvu
T:Eugen Pîrvu
T:Eugen Pîrvu
T:Eugen Pîrvu
T:Eugen Pîrvu
T:Eugen Pîrvu
T:Eugen Pîrvu
T:Eugen Pîrvu
T:Eugen Pîrvu
T:Eugen Pîrvu
T:Eugen Pîrvu
T:Eugen Pîrvu
T:Eugen Pîrvu
C:C. G. Porumbescu
Z:Eugen Pîrvu
%%score { ( 1 3 ) | ( 2 4 ) }
L:1/8
Q:1/4=100
M:6/8
K:G
V:1 treble nm="Piano" snm="Pno."
V:3 treble 
V:2 bass 
V:4 bass 
V:1
 x32 x16 x4 ||[M:6/8]!f![Q:1/8=150]"^Allegretto""^(Craiu nou, Craiu nou)" G/B/ | %2
 [G-Bd]2 [GB] ([Gceg]2 [Gce]) | [GBd]3- [GBd]2 [GB] | ([FA]2 [GB]) [Ac]>[ce] [Bd]/[^A^c]/ | %5
 [GBd]3- [GBd]2 G/B/ | [G-Bd]2 [GB] ([GBdg]2 [B^d]) | [Ece]3- [Ece]2 [Gg] | %8
 ([Ff]Af) ([^ce]A[Gce]) | [FAd]3- [FAd] z G/B/ | [G-Bd]2 [GB] ([Gceg]2 [Gce]) | %11
 [GBd]3- [GBd]2 [GB] | ([FA]2 [GB]) [Ac]>[ce] [Bd]/[^A^c]/ | [GBd]3- [GBd]2 G/B/ | %14
!<(! [GBd]2 [GBd] [FAB^d]2 [FABd]!<)! | [Gce]3- [Gce]2 [ce] | [Fcdf]2 [Fcdf] [Fcdf]2 [Fcdf] || %17
[M:3/8]"^Hora"!ff! [GBg]z/!p!D/B/D/ | Gz/D/B/D/ | Gz/D/B/D/ | G2 z | A>B{/d} c/B/ |{/e} d>c B/A/ | %23
 ^GA e/d/ | cz/B/ A/F/ | Gz/D/B/D/ | Gz/D/B/D/ | Gz/D/B/D/ | G2 z | A>B{/d} c/B/ |{/e} d>c B/A/ | %31
 Gz/g/ d/B/ | G2 z ||!f! gz/d/b/d/ | gz/d/b/d/ | gz/d/b/d/ | g2 z | a>b{/d'} c'/b/ | %38
{/e'} d'>c' b/a/ | ^ga e'/d'/ | c'z/b/ a/f/ |!f! gz/d/b/d/ | gz/d/b/d/ | gz/d/b/d/ | g2 z | %45
 a>b{/d'} c'/b/ |{/e'} d'>c' b/a/ | gz/g'/ d'/b/ | g2 z |:!p! =fz/g/ e/f/ | dz/e/ c/d/ | %51
 Bz/A/ B/c/ | d2 z |!f! [Aa]>[Bb] [cc']/[Bb]/ | [dd']>[cc'] [Bb]/[Aa]/ | [Gg]>[Aa] [Bb]/[cc']/ | %56
 [dd']2 z |!p! =fz/g/ e/f/ | dz/e/ c/d/ | Bz/A/ B/c/ | d2 z |!f! [Aa]>[Bb] [cc']/[Bb]/ | %62
 [dd']>[cc'] [Bb]/[Aa]/ | [Gg]z/g'/ d'/b/ | g2 z ::!p! Gz/D/B/D/ | Gz/D/B/D/ | Gz/D/B/D/ | G2 z | %69
 A>B{/d} c/B/ |{/e} d>c B/A/ |1 ^GA e/d/ | cz/B/ A/F/ :|2 Gz/g/ d/B/ | G2 z |: %75
!p! ^d z/{/f}e/ B/e/ | f{/a}g{/g} f/e/ | Bz/e/ f/g/ | T^a2 g | f{/a}ge/g/ | c' z/ b/a/f/ | %81
 g z/ e/=f/d/ | e2 d/c/ |!p! ^d z/{/f}e/ B/e/ | f{/a}g{/g} f/e/ | Bz/e/ f/g/ | T^a2 g | %87
!f! ^ab{/b} a/g/ | (3(gfe) b/^d/ | ez/e'/ b/g/ | e2 z :| %91
[M:4/4]"^Larghetto."!p! ([G-ce-]4 ([G-Be-]4) | ([G-^Ae-]4) ([G-Be-]4) | [Gce]4) !>!c2 !>!c2 | %94
 ([_Ac-e-]4 ([Gc-e-]4) | ([^Fc-e-]4) ([G-ce]4) | [GBd]4-) !fermata![GBd]4 || %97
[K:C][M:3/4]"^(Te-ai dus iubite)"[Q:1/4=140]"^Moderato."!p! ([EG]2 [^D^F]3 [=FA]) | ([EG]2 [ce]4 | %99
 [ce][^GB]) ([Bd]3 [Ac]) | ([GB]2 [FA]2) z2 | ([B,D]2 [CE]2 [DF]2 | [GB]4 [FA]2) | %103
 ([EG]2 [FA]3 [CE]) | ([EG][ce][Bd][Ac][GB][FA]) | ([EG]2 [^D^F]3 [=FA]) |!<(! ([EG]2 [ce]4 | %107
 [Ee]2)!<)!!mf! ([Ff]3 A) | ([Ee]2 [Dd]2) z2 |!<(! ([Ac]2 [GB]2 [FA]2) | [EG]2!<)! !>![Gce]4 | %111
 ([Fd]2!>(! [Ge]3 [Fd])!>)! | [Ec]2 !fermata!z !>!e !>!e>!>!e || %113
[M:4/4]!p![Q:1/4=90]"^Andantino con moto" (A3 B) z c(d>c) | (c/B/d/c/ B2) z [Dd][Ee]>[Ff] | %115
 ([Ee]3 d) z d (3(dcB) | c4 z e e>e | (A3 B) z!<(! c (3(cBA) | %118
 ([Gg][_G_g]!<)! [Ff]2) z ([Dd][Ee][Ff]) |!>(! ([Ee]3 [Dd])!>)! z d (3(dcB) | %120
 !fermata!A2 (6:4:6(G/A/B/c/d/c/)!<(! !fermata!B (6:4:6(B/c/d/e/f/e/) !fermata!d B/c/ !fermata!ba!<)!"_dim." !fermata!g2!>(! (6:4:6(f/g/a/g/f/e/) (6:4:6(d/e/f/e/d/c/)!>)! (BdAd) !fermata!G3 || %121
[M:3/4][Q:1/4=140]"^Tempo I"!p! ([EG]2 [^D^F]3 [=FA]) | ([EG]2 [ce]4 | [ce][^GB]) ([Bd]3 [Ac]) | %124
 ([GB]2 [FA]2) z2 | ([B,D]2 [CE]2 [DF]2 | [GB]4 [FA]2) | ([EG]2 [FA]3 [CE]) | %128
 ([EG][ce][Bd][Ac][GB][FA]) | ([EG]2 [^D^F]3 [=FA]) |!<(! ([EG]2 [ce]4 | [Ee]2)!<)!!mf! ([Ff]3 A) | %132
 ([Ee]2 [Dd]2) z2 |!<(! ([Ac]2 [GB]2 [FA]2) | [EG]2!<)! !>![Gce]4 | %135
 [FBd]2 !>!!fermata![GBg]3 [FGB] || %136
[K:F][M:2/4][Q:1/4=120]"^Marcia.""^(Pe plaiul de munte)" [EGc][Cc]/[Cc]/ [Cc][Cc]/[Cc]/ | %137
 [Cc][Cc]/[Cc]/ [Cc]C |!mf! F2 (A>[Bd]) | ([Ac]3 [FA]) | CFA[Bd] | ([Ac]2 [FA]) z | FAcd | [Bd]4 | %144
 [ce][Bd][Ac][GB] | Ac/c/ cC | F2 (A>[Bd]) | ([Ac]3 [FA]) | CFA[Bd] | ([Ac]2 [FA]) z | %150
!<(! [Ee]2 [Aa]>[cc']!<)! |!f! [ee']4 | [ee']z/[Ee]/ (3[Ee][Ff][^G^g] | [Aa]2 z!p! [Ac] | %154
 [GB][^FA] [GB][ce] | [Bd][A^c] [Bd][GB] | [FA][E^G] [FA][Bd] | [Ac]3 A/F/ | %158
!p! (E>!<(!F G/A/B/c/)!<)! |!f! [EBd]/[EBd]/[EBd]/[EBd]/ [EBd]2 |!p! (F>!<(!G A/B/c/d/)!<)! | %161
!f! [FAc]/[FAc]/[FAc]/[FAc]/ [FAc][Ac] | [GB][^FA] [GB][ce] | [Bd][A^c] [Bd][GB] | %164
 [FA][E^G] [FA][Bd] | [Ac]3 A |!f! [Gg]2 [Aa][=B=b] | [cc'][dd'][ee'][ff'] | [gg'] z (T=B2{AB)} | %169
 cc/c/ cC |!mf! F2 (A>[Bd]) | ([Ac]3 [FA]) | CFA[Bd] | ([Ac]2 [FA]) z | FAcd | [Be]4 | %176
 [ce][Bd][Ac]B | Ac/c/ cc | [Ff]2 [Aa][dd'] | [cc']3 [Aa] | [Cc][Ff] [Aa][dd'] | [cc']2 [Aa]2 | %182
 [Ff][Aa] [cc'][dd'] | [dbd']3 [dbd'] | [ebc'e']3 [ebc'e'] | z/ (C/F/A/ c/f/a/c'/) | %186
 z/ (C/E/G/ c/e/g/c'/) | z/ (^C/E/G/ B/^c/e/g/) | z/ (E/G/B/ ^c/e/g/b/) | z/ (G/B/^c/ e/g/b/^c'/) | %190
 z/ (B/^c/e/ g/b/^c'/e'/) | z/ (^c/e/g/ b/^c'/e'/!fermata!g'/) || %192
[M:3/4][Q:1/4=90]"^Andantino""^(În aste haine)" A,D>E | F3 F (3(AG3/2F/) | %194
!<(! (F2 E) z/ (E/ G>A)!<)! | B3 B (3(BA^G) | A2 z2!<(! A>A!<)! |!mf! (c3 FEF) | %198
!>(! (A2 G)!>)! z/ (F/ E>D) | [F^G=B]3 [FGB] (3([FGB]AG) | A2 z2!<(! A>A!<)! | %201
!f! [^Fd]3 [Fd] (3[F_e]d3/2A/ | ([Ac]2 [GB]) z/!p! (G/ AB) | (B2 A) z/ (E/ F>G) | %204
 (G2 F) z/!<(! (A,/ D>E) | F3!<)! F (3(EFD) | A2 z!<(! (A=B>c) | %207
{/=B} (d3!<)!!>(! c) (B/A/) (^G/F/)!>)! | A2 z (A,D>E) | F3 F"^rall." (3(EA,!fermata!E) || %210
[M:3/8]!p![Q:1/4=90]"^Tempo di Hora" D2 z | z3 |{/d} d' z{/d} c' |{/d} =b z{/d} a/^g/ | %214
{/d} =b z{/d} a |{/d} (^g>f e/d/) |{/d} d' z{/d} c' |{/d} =b z{/d} a/^g/ |{/d} =b z{/d} a | %219
{/d} (^g>f e/d/) |!mf! e(f>a) | (Pg>f)a | e(f>a) | (Pg>f)a | e(f>a) | (Pg>f) (f/e/) | %226
 (e/d/) z{/^g} a | d2 z | e(f>a) | (Pg>f)a | e(f>a) | (Pg>f)a | e(f>a) | (Pg>f) (f/e/) | %234
 (e/d/) z [^c^c'] ||[M:4/4][Q:1/4=140]"^Allegro"!f! [dd']2 z [dd'] [dd']2 z [dd'] | %236
 [dd']2 z [dd'] !>![dd']2 !>![dd']2 | !>![dd']2 !>![dd']2 !>![dd']2 !>![dd']2 | %238
 z/[I:staff +1] (E,/G,/B,/[I:staff -1] C/E/G/B/ c/e/g/b/ c'/e'/g'/!fermata!b'/) || %239
[M:4/4][Q:1/4=120]"^Allegretto grazioso""^(Fa Dochițo puică albă)" .C z .F z .F z .F z | %240
 EFGA GA F2 | !arpeggio!!>![CEGc] z G z G z G z | GAGF EDEC | [Cc]2 [Ff]2 [Ff]2 [Ff]2 | %244
 ([Ee][Ff]) ([Gg][Aa]) [Ff]2 z2 | ([Aa]3 [=B=b]) ([cc']2 [ee']2) | %246
 [=B=b]2 ([cc']>[Bb] [Aa]) (A_B=B) | !arpeggio!.[CEGc] z .G z .G z .G z | AGFG A2 F2 | %249
 G z G z c/B/A/G/ AF | G z G z c/B/A/G/ AF | [cc']2 [Gg]2 [Gg]2 [Gg]2 | %252
 ([Aa][Gg]) ([Ff][Gg]) [Aa]4 |!f! ([Gg]3 [cc']) ([ege']3 [cec']) | ([dfd']3 [fg]) [ec']2 z!p! d | %255
 c2 z d c2 z d |!<(! (c6 ^c2)!<)! ||[M:3/4]!f![Q:1/4=140]"^Tempo di valse" (.[FBd]2 z2 .[FBd]2) | %258
 [FBd]6 | [Ff] z (B3 c) | [Bd]6 | (.[FAc]2 z2 .[FAc]2) | [FAc]6 | [Ff] z (A3 B) | [Ac]6 | %265
 (G2 A2 B2 | [Cc]2 [Dd]2 [Ee]2) | (([Dd]6 | [Cc]2)) z2 z2 | (E2 F2 G2 | A2 B2 c2) | (B6 | %272
 (A)FGABc) |!f! (.[FBd]2 z2 .[FBd]2) | [FBd]6 | [Ff] z (B3 c) | [Bd]6 | (.[FAc]2 z2 .[FAc]2) | %278
 [FAc]6 | [Ff] z (A3 B) | [Ac]6 | ([EG]2 [FA]2 [GB]2) | ([Bd]4 [Ac]2) | ([ce]4 [Bd]2) | %284
 ([df]4 [ce]2) | ([eg]4 [df]2) | ([fa]4 [eg]2) | %287
!ff! !fermata![^cegb]2!>(! (gecBGE)!>)! !fermata!B3 A || %288
[M:4/4]!p![Q:1/4=90]"^Andantino con moto.""^(Voinice, să trăiesci)" z4 z2 z[K:bass] A, | %289
 A,2 D,2 z (F,E,>D,) | B,4 z G,A,>B, | A,4 z!>(! G, (3(G,F,3/2E,/)!>)! | F,4 z2 z A, | %293
 A,2 D,2 z!<(! (F,E,>D,)!<)! | !>!D4 z DC>B, | (A,>C, D,/C,/=B,,/C,/) (A,3 G,) | %296
 F,4 z2[K:treble]!f! [Ff]2 | [dd']4- [dd'][ff'][Bb][dd'] | [cc']4 z2 [Ff]2 | %299
 [dd']4- [dd'][ff'][Bb][dd'] | [cc']4 z2 [Aa]2 |!p! [Aa]4- [Aa][Aa][^c^c'][Ee] | %302
[Q:1/4=60] (a/4^c'/4e'/4a'/4e'/4c'/4a/4e/4^c/4A/4E/4^C/4[I:staff +1]A,/4E,/4^C,/4A,,/4E,,/4^C,,/4 !fermata!A,,,2)[I:staff -1] x x/ || %303
[M:2/4][Q:1/4=160]"^Allegro""^(Gâl, gâl, gâl, gâl. gâl)" .[Af] z .[Ac] z | .[Bd].[Bd] .[Ac]2 | %305
 .[GB].[GB] .[FA].[FA] | .[EG].[EG] .F2 |!f! [fac'f'] z [cac'] z | [dbd'][dbd'] [cac']2 | %309
 [Beb][Beb] [Afa][Afa] | [Geg][Geg] [Ff]2 | [fac'f'] z [cac'] z | [dbd'][dbd'] [cac']2 | %313
 [Beb][Beb] [Afa][Afa] | [Geg][Geg] [Ff][ff'] | [ff']>[dd'] [dd']>[=B=b] | %316
 [=B=b]>[^G^g] [Gg]>[ff'] | [ff']>[dd'] [dd']>[=B=b] | [=B=b]>[^G^g] [Gg]>[ff'] | [ff']2 z [ff'] | %320
 [ee']2 z [ff'] | [ff']2 z [ff'] | [ee']2 z [ff'] | [ee'](E/A/ ^c)(A/c/ | e)(^c/e/ a)(e/a/ | %325
 ^c')(a/c'/ e')(c'/e'/ | !fermata![a^c'e'g']4) || %327
[M:4/4]!mf![Q:1/4=100]"^Andante lerghetto""^(Român verde ca stejarul)" A,2 D2 D2 D2 | %328
 (F2 EF){/A} (GFED) | A,2 D2 D2 D2 | (F2 EF){/A} (GFED) | C2 F2 F2 F2 | (G2 FG){/A} (GFED) || %333
[M:3/4]{/F} AA G2 (!fermata!A-A/4F/4E/4D/4) | DD D2 !fermata![DFAd]2 || %335
[M:3/8][Q:1/4=100]"^Tempo di Hora"!f! d'zc' | =bza | d'zc' | =bza | !>![G=Bdg] !>![GBdg]2 | %340
 [Aa]>[Gg] (3([=B=b]/!>![Aa]/[Gg]/) | !>![G=Bdg] !>![GBdg]2 | (.[Gg]/^f/g/a/=b/c'/) | d'zc' | %344
 =bza | d'zc' | =bza ||[M:3/4][Q:1/4=80]"^Lento" [G=Bg][Aa] [Bg=b]2 [c^fac']2 | %348
 [=Bg=b]2 [A^fa]2 (!fermata![Gg]-[Gg]/4=f/4e/4!fermata!d/4) | %349
 ([Acf]f/e/) [ceg]2 (!fermata![^ceg-]g/4f/4e/4d/4) | dd !fermata![dfad']4 | %351
 [DFB]>[DGB] !fermata![DGB]4 |!pp! [dfb]>[dgb] !fermata![dgb]4 | %353
[K:bass] [C,_E,_A,]>[=B,,F,G,] !fermata![B,,F,G,]4 | %354
[K:treble]!pp! [C_E_A]>[B,FG] !fermata![B,FG]4 || %355
[K:Eb][M:6/8][Q:1/4=100]"^Poco agitato."!p!"^(O, ce fericire!)" z6 | z6 | (G3 e=B>d) | (c3 !^!G3) | %359
 (F3 BA>G) | (G3 G2) z | (G3 e=B>d) | (c3- cBA) | (GDE) (!fermata!G2 F) | E3- EzG | %365
!f! A3 (=E/F/G/A/d/c/) | (B3 G)z!mf!G | A3 (=E/F/G/A/d/c/) | (B3 G) z B | %369
!<(! [FG=B]3- [FGB][FGB][FGB]!<)! |!f! !>![EGc]3 !>![EAc]3 | [Bd]3 (c/B<AG/) | (G3 G)z!mf!G | %373
 A3 (=E/F/G/A/d/c/) | (B3 G)z!mf!G | A3 (=E/F/G/A/d/c/) | (B3 G) z B | %377
!<(! [FG=B]3- [FGB][FGB][FGB]!<)! |!f! !>![EGc]3 !>![EAc]3 | %379
 ([Bd]e/d/^c/d/) ((!fermata![Bg]2 [Af])) | [Ge]3 ([eg]/[fa]/[gb]/[ac']/[bd']/[c'e']/) | %381
 (!>![dbd'][cac']>[dbd']) (!>![cac']2 [Bgb]) | (!>![cac'][Bgb]>[Afa]) (!>![Afa]2 [Geg]) | %383
!>(! [Gg]3 [Gg]3!>)! ||[K:C][M:2/4][Q:1/4=100]"^Alla Marcia." !>![Gg]G/G/ GG/G/ | GG/G/ GG |: %386
!f!"^(Haideți, haideți!)" [Ec]G [Ec]G | [Ec]G [Ec]B/c/ | [Fd][FA] [GB]G | g/a/f/g/ e/f/d/e/ | %390
 [Ec]G [Ec]G | [Ec]G [Ec]B/c/ | [Fd]B/d/ g/f/e/d/ |1 c2 z G :|2 c2 z [cc']/[Bb]/ || %395
 [Aa]2 z [cc']/[Bb]/ | [Aa]2 z [Aa]/[Bb]/ | [cc'][Bb]/[cc']/ [dd'][cc']/[dd']/ | %398
 e'/f'/d'/e'/ c'/d'/b/c'/ | [Aa]2 z [cc']/[Bb]/ | [Aa]2 z [Aa]/[Bb]/ | %401
 [cc'][Bb]/[cc']/ [dd'][Bb]/[Gg]/ | [gg']2 z{/^f} g | G2 z{/^f} g | G2 z{/^f} g | G{/^f}g G{/f}g | %406
 GG/G/ GG | [Ec]G [Ec]G | [Ec]G [Ec]B/c/ | [Fd][FA] [GB]G | g/a/f/g/ e/f/d/e/ | [Ec]G [Ec]G | %412
 [Ec]G [Ec]B/c/ | [Fd]B/d/ g/f/e/d/ | cg/f/ e/f/d/e/ | cg/f/ e/f/d/e/ | %416
!ff! c[cegc'][cegc'][cegc'] | [cegc'][cegc'][cegc'][cegc'] | [cegc']2 z2 | [egc'e']2 z2 | %420
 !>!C2 !>!C2 | !fermata!C4 |][K:G][M:3/4][Q:1/4=70]!<(! B,4 (3(^A,/B,/C/(3^D/E/F/)!<)! | %423
 G4!>(!{/A} (3(GF3/2E/) | (F2- (3F^EF){/F} (3(AG3/2F/) | F2 z2!>)! (AB) | (c2- (3cf)^d- (3dc3/2B/ | %427
!p! B2- (3(BAG){/A} (3(GFE) | ((A3 G)){/A} (3(GFE) |{/!fermata!E} !fermata!B4 z2 | %430
!<(! ((B,4 (3^A,/)B,/C/(3^D/E/F/)!<)! | G4{/A} (3(GF3/2E/) |!>(! (F2- (3F^EF){/F} (3(AG3/2F/)!>)! | %433
 F2 z!<(! Ace!<)! |!mf! e2-"_cresc." (3edc (3cB^A | %435
"_motto rit .........................." (3(Bg^d) (3(feB) (3(=dcA) | %436
!>(! (3(F^DC) (3B,DF (3A!fermata!cB | %437
 (!fermata!E[Q:1/4=40](6:4:6F/4E/4^D/4E/4!fermata!G3/8!>)!F/8)!pp! !fermata!E4 |: %438
!p![Q:1/4=70] [ee']4 (3([dd'][cc']3/2[Bb]/) | [Bb]4 z e | %440
 [ee']2- (3[ee'][dd'][cc'] (3[cc'][Bb]3/2[^A^a]/ | !fermata![Bb]4 (6:4:6(a/b/c'/b/a/g/) | %442
 !fermata!a4 (6:4:6(g/a/b/a/g/f/) | !fermata!g4 (6:4:6(f/g/a/g/f/e/) | %444
 f4[Q:1/4=40] (5:4:5B,/4C/4B,/4^A,/4B,/4(5:4:5C/4^D/4E/4F/4G/4 |1 %445
{/!fermata!G} !fermata!E4[Q:1/8=70]!<(! Ee!<)! :|2!p! E4[Q:1/4=80] (3(EFG) |: [FA]4 ([GB]>[Ac]) | %448
 [FA]4 ([FA]>[GB]) | [Ac]4 ([B^d]>[ce]) | [Ac]3 ^d[ce][cf] |!f! !arpeggio![Beg]4- (3[Beg][Af][Ge] | %452
!>(! [Ge]3 (BGE)!>)! | (!arpeggio![^DFc]3 D) E/F/G/E/ |{/E} B4!p! gf | %455
 [fa]2 (3(ef^g) (3(a[gb][ac']) | ([fa]2- (3[fa][^e^g][fa]) (3([eg][fa][gb]) | %457
 ([ac']2 (3(^g)ab) (3(c'^d'[c'e']) |!<(! ([ac']2- (3[ac']bc') (3([^d^d'][ee'][ff'])!<)! | %459
!f! [gbe'g']4- (3[gbe'g'][fc'f']3/2[ege']/ | [ege']2- (3[ege']bg (5:4:5e/B/G/E/C/ | B,4 G>F |1 %462
 E4!p! (3EFG :|2 E6 ||[Q:1/4=70]!<(! B,4 (3(^A,/B,/C/(3^D/E/F/)!<)! | G4!>(!{/A} (3(GF3/2E/) | %466
 (F2- (3F^EF){/F} (3(AG3/2F/) | F2 z2!>)! ([FA]B) | ([Ec]2- (3[Ec][Af])([F^d] (3[Fd]([Ec][^DB])) | %469
!p! [EB]2- (3([EB][AB][GB]{/A} (3[B,G][A,F][G,E]) | (([CA]3 [B,G])){/A} (3([^A,G][A,F][A,E]) | %471
{/!fermata!B,} !fermata!B4 z2 | B4!<(! (3^A/B/c/(3^d/e/f/!<)! | g4{/a} (3gf3/2e/ | %474
 [Af]2- (3([Af][^G^e][Af]) (3[ca][Bg]3/2[Af]/ | [Af]2 z!8va(! (([fa][ac'][c'e'])) | %476
 [c'e']2 (3([c'e'][bd'][ac']) (3([ac'][gb][f^a]) | %477
 (3[gb][bg']"_largamente"[f^d'] (3[af']e'[gb] (3[f=d']c'[fa]!8va)! | %478
 (3!>![fa]!>![^da]!>![cd] (3!>![Bd]!>![cd]!>![df] (3!>![fa]!>!!fermata![ec']!>![db] | %479
 e-[Q:1/4=35] (7:4:7e/4f/4e/4^d/4e/4!fermata!g3/8f/8 !fermata!e4 |: %480
[M:4/4][Q:1/4=80]"^Pocopii moto" E/B,/^G/F/ E/G/B/A/ G/B/e/B/ ^g/e/b/e/ | %481
 e'/e/d'/e/ c'/e/b/e/ a/e/^g/=f/ e/d/c/B/ | A/E/c/B/ A/c/e/d/ c/e/a/e/ c'/e/d'/e/ | %483
 e'/e/d'/e/ c'/e/b/e/ a/^g/=f/e/ d/c/B/A/ | ^G/B/d/c/ B/d/=f/e/ ^d/e/^g/f/ e/g/b/a/ | %485
 ^g/b/d'/c'/ b/d'/=f'/e'/!8va(! ^d'/e'/^g'/f'/ e'/g'/b'/a'/ | %486
 ^g'/b'/d''/c''/ b'2 [e'e''] b'2 [e'e''] | b'[e'e'']b'[e'e''] !fermata!b'4!8va)! || %488
[M:3/4] (b2- (3bPae (3bPae) | (a2- (3aPge (3aPge) | (g2- (3gPfB (3gPfB) | (e2- (3egb (3e'd'c') | %492
 (b2- (3bPae (3bPae) | (a2- (3aPge (3aPge) | (g2- (3gPfB (3gPfB) |1 e4 z2 :| %496
[M:4/4] e/B/g/f/ e/c'/b/a/ g/e'/d'/c'/ b/a/g/f/ | e/B/g/f/ e/c'/b/a/ g/e'/d'/c'/ b/a/g/f/ | %498
 e/B/g/f/ e/c'/b/a/ g/g'/f'/e'/ ^d'/c'/b/a/ | g/d'/c'/b/ a/g/f/e/ ^d/c'/b/a/ g/f/e/d/ | %500
 c/a/g/f/ e/^d/c/B/ A/G/F/E/ ^D/C/B,/^A,/ | B,/^D/F/E/ D/F/A/G/ F/A/c/B/ ^A/B/^d/c/ | %502
 B/^d/f/e/ d/f/a/g/ f/a/c'/b/ ^a/b/^d'/c'/ |!8va(! b/^d'/f'/e'/ d'/f'/a'/g'/ f'4!8va)! || %504
[M:3/4] !arpeggio![B^dfb]4 z2 | (b2- (3bPae (3bPae) | (a2- (3aPge (3aPge) | (g2- (3gPfB (3gPfB) | %508
 (e2- (3egb (3e'd'c') | (b2- (3bPae (3bPae) | (a2- (3aPge (3aPge) | (g2- (3gPfB (3gPfB) | %512
 e2 !fermata!e'2 !fermata!z2 ||[Q:1/4=70]"^Tempo primo"!p!!<(! B,4 (3(^A,/B,/C/(3^D/E/F/)!<)! | %514
 G4!>(!{/A} (3(GF3/2E/) | (F2- (3F^EF){/F} (3(AG3/2F/) | F2 z2!>)! ([FA]B) | %517
 ([Ec]2- (3[Ec][Af])[F^d] (3[Fd][Ec]3/2[^DB]/ |!p! [EB]2- (3([EB][AB][GB]{/A} (3[B,G][A,F][G,E]) | %519
 (([CA]3 [B,G])){/A} (3([^A,G][A,F][A,E]) |{/!fermata!B,} !fermata!B4 z2 | %521
 B4!<(! (3^A/B/c/(3^d/e/f/!<)! | g4{/a} (3[Bg][Af]3/2[Ge]/ | %523
 [Af]2- (3([Af][^G^e][Af]) (3[ca][Bg]3/2[Af]/ | [Af]2 z!8va(! (.[fa].[ac'].[c'e']) | %525
 [c'e']2- (3([c'e'].[bd'].[ac']) (3(.[ac'].[gb].[f^a]) | %526
 (3([gb][bg'])"^largamente"[f^d'] (3[c'f']e'[gb] (3[f=d']c'[fa]!8va)! | %527
 (3!>![fa]!>![^da]!>![cd] (3!>![Bd]!>![cd]!>![df] (3!>![fa]!>!!fermata![ec']!>![db] | %528
 e- (7:4:7e/4[Q:1/4=35]f/4e/4^d/4e/4!fermata!g3/8f/8 !fermata!e4 || %529
!p![Q:1/4=80] [ee']4 (3([dd'][cc']3/2[Bb]/) | [Bb]4 z e | %531
 ([ee']2- (3[ee'][dd'][cc']) (3([cc'][Bb][^A^a]) | !fermata![Bb]4 (6:4:6(a/b/c'/b/a/g/) | %533
 !fermata!a4 (6:4:6(g/a/b/a/g/f/) | !fermata!g4 (6:4:6(f/g/a/g/f/e/) | %535
 !fermata!f4[Q:1/4=50] (10:4:10(B/c/B/^A/B/c/^d/e/f/g/) |[Q:1/4=80] !fermata!e4 Ee | %537
 e4 (3(dc3/2B/) | B4 z E | (e2- (3edc) (3(cB^A) | !fermata!B4 (6:4:6(A/B/c/B/A/G/) | %541
 !fermata!A4 (6:4:6(G/A/B/A/G/F/) | !fermata!G4 (6:4:6(F/G/A/G/F/E/) | %543
 !fermata!F4[Q:1/4=40] (10:4:10(B,/C/B,/^A,/B,/C/^D/E/[Q:1/4=30]!fermata![A,F]/!fermata![B,G]/) | %544
 !fermata![G,E]2 z4 |] %545
V:2
"^ad lib." (G,D,B,D, !fermata!G,2) (G,D,B,D, !fermata!G,2) (DEDA,) !fermata!D2 (DEDA,DEDA,) !fermata!D2[I:staff -1] (ABAE) !fermata!A2 (ABAE) !fermata!A2 (fdeA) !fermata!d2 (EA,!fermata!D)[I:staff +1] (E,A,,!fermata!D,) || %1
[M:6/8] z | [G,,G,]2 [G,,G,] [C,,C,]2 [E,,E,] | [G,,G,]3- [G,,G,]2 [G,,G,] | %4
 [D,,D,]3 [F,,F,]2 [D,,D,] | [G,,G,]2 [D,,D,] [G,,,G,,]2 z | [G,,G,]3 [B,,,B,,]3 | %7
 [C,,C,]3- [C,,C,]2 z | ([D,,D,][F,,F,][A,,A,]) ([A,,,A,,][E,,E,][A,,A,]) | %9
 [D,D]>[E,E] [C,C]/[D,D]/ [B,,B,]>[C,C] [A,,A,]/[B,,B,]/ | [G,,G,]2 [G,,G,] [C,,C,]2 [E,,E,] | %11
 [G,,G,]3- [G,,G,]2 [G,,G,] | [D,,D,]3 [F,,F,]2 [D,,D,] | [G,,G,]2 [D,,D,] [G,,,G,,]2 z | %14
 [G,,G,]2 [G,,G,] [B,,,B,,]2 [B,,,B,,] | [C,,C,]3- [C,,C,]2 [A,,,A,,] | %16
"^rallent." [D,,D,]2 [D,,D,] [D,,D,]2 [D,,D,] ||[M:3/8] [G,,G,]z/G,/D,/G,/ | G,,z/G,/D,/G,/ | %19
 G,,z/G,/D,/G,/ | G,,z/G,/D,/G,/ | [D,,D,] z [F,A,D] | [F,A,D]z[F,A,D] | [D,,D,] z [F,A,D] | %24
 [F,A,D]z[F,A,D] | [G,,G,]z/G,/D,/G,/ | G,,z/G,/D,/G,/ | G,,z/G,/D,/G,/ | G,,z/G,/D,/G,/ | %29
 [D,,D,] z [F,A,D] | [F,A,D]z[F,A,D] | [G,B,D] z [D,,D,] | G,,2 z || G,, z [G,B,D] | %34
 [G,B,D]z[G,B,D] | [G,B,D]z[G,B,D] | [G,B,D]z[G,B,D] | [D,,D,] z [F,A,D] | [F,A,D]z[F,A,D] | %39
 [D,,D,] z [F,A,D] | [F,A,D]z[F,A,D] | G,, z [G,B,D] | [G,B,D]z[G,B,D] | [G,B,D]z[G,B,D] | %44
 [G,B,D]z[G,B,D] | [D,,D,] z [F,A,D] | [F,A,D]z[F,A,D] | G,, z [G,B,D] | [G,B,D]2 z |: %49
 [G,B,D]z[G,B,D] | [G,B,D]z[G,B,D] | [G,B,D]z[G,B,D] | [G,B,D]z[G,B,D] | [D,,D,] z [F,A,D] | %54
 [F,A,D]z[F,A,D] | [G,B,D]z[G,B,D] | G,,z/B,,/D,/G,/ | [G,B,D]z[G,B,D] | [G,B,D]z[G,B,D] | %59
 [G,B,D]z[G,B,D] | [G,B,D]z[G,B,D] | [D,,D,] z [F,A,D] | [F,A,D]z[F,A,D] | [G,B,D]z[G,B,D] | %64
 [G,B,D]z[G,B,D] :: [G,,G,]z/G,/D,/G,/ | G,,z/G,/D,/G,/ | G,,z/G,/D,/G,/ | G,,z/G,/D,/G,/ | %69
 [D,,D,] z [F,A,D] | [F,A,D]z[F,A,D] |1 [D,,D,] z [F,A,D] | [F,A,D]z[F,A,D] :|2 [G,B,D] z [D,,D,] | %74
 G,,2 z |: E,,z/E,/B,,/E,/ | E,,z/E,/B,,/E,/ | E,,z/E,/B,,/E,/ | E,,z/E,/B,,/E,/ | %79
 [C,,C,] z [E,G,C] | [E,G,C]z[E,G,C] | [=F,G,B,]z[F,G,B,] | [E,G,C]z[E,G,C] | E,,z/E,/B,,/E,/ | %84
 E,,z/E,/B,,/E,/ | E,,z/E,/B,,/E,/ | E,,z/E,/B,,/E,/ | [B,,,B,,] z [A,B,^D] | [A,B,^D]z[A,B,D] | %89
 [G,B,E]z[B,,B,] | [E,,E,]2 z :|[M:4/4] ([C,C]4 [B,,B,]4 | [^A,,^A,]4 [B,,B,]4 | %93
 [C,C]4) !>![C,C]2 !>![C,C]2 | ([_A,,_A,]4 [G,,G,]4 | [^F,,^F,]4 [G,,G,]4 | %96
 [G,,G,]4 !fermata![G,,,G,,]4) ||[K:C][M:3/4] C,2 [E,G,C]2 [E,G,C]2 | C,2 [E,G,C]2 [E,G,C]2 | %99
 F,,2 [F,A,D]2 [F,A,D]2 | F,,2 [F,A,D]2 [F,A,D]2 | G,,2 [F,G,B,]2 [F,G,B,]2 | %102
 G,,2 [F,G,B,]2 [F,G,B,]2 | (([F,G,-B,]6 | [E,G,C]2)) z2 z2 | C,2 [E,G,C]2 [E,G,C]2 | %106
 C,2 [E,G,C]2 [E,G,C]2 | A,,2 [G,A,^C]2 [G,A,C]2 | [D,,D,]2 [F,A,]2 [F,A,D]2 | %109
 ([F,A,]2 [G,B,]2 [F,A,]2) | [E,G,]2 !>![C,G,C]4 |"^rit." [F,,G,]2 z2 z [F,G,B,] | %112
 [E,G,C]2 !fermata!z2 z2 ||[M:4/4] (A,,E,[A,C]E,) (A,,E,[A,C]E,) | %114
 (E,,E,[^G,B,]E,) (E,,E,[B,D][E,G,]) | (E,,E,[B,D][E,^G,]) (E,,E,[G,B,]E,) | %116
 (A,,E,[A,C]E,) (A,,E,[A,C]E,) | (A,,E,[A,C]E,) (C,E,[A,C]E,) | %118
 ([D,,D,][F,A,]D[F,A,]) (D,,[F,A,]D[F,A,]) | (E,,E,[B,D][E,^G,]) (E,,E,[G,B,]E,) | %120
"^Cadenza" !fermata![A,,A,]2 x4 x4 !fermata!z2 !fermata!z4"^rit." x8 || %121
[M:3/4] C,2 [E,G,C]2 [E,G,C]2 | C,2 [E,G,C]2 [E,G,C]2 | F,,2 [F,A,D]2 [F,A,D]2 | %124
 F,,2 [F,A,D]2 [F,A,D]2 | G,,2 [F,G,B,]2 [F,G,B,]2 | G,,2 [F,G,B,]2 [F,G,B,]2 | (([F,G,-B,]6 | %128
 [E,G,C]2)) z2 z2 | C,2 [E,G,C]2 [E,G,C]2 | C,2 [E,G,C]2 [E,G,C]2 | A,,2 [G,A,^C]2 [G,A,C]2 | %132
 [D,,D,]2 [F,A,]2 [F,A,D]2 | ([F,A,]2 [G,B,]2 [F,A,]2) | [E,G,]2 !>![C,G,C]4 | %135
 G,,2 !>!!fermata![F,G,B,]3 z ||[K:F][M:2/4] [C,C] z z2 | [C,,C,][C,,C,]/[C,,C,]/ [C,,C,][C,,C,] | %138
 [F,A,C]z[F,A,C] z | [F,A,C]z[F,A,C] z | [F,A,]z[F,A,C] z | [F,A,C]z[F,A,C] z | [F,A,C]z[F,A,C] z | %143
 [B,,,B,,] z [F,B,D] z | [E,G,B,]z[E,G,B,] z | [F,A,] z z2 | [F,A,C]z[F,A,C] z | %147
 [F,A,C]z[F,A,C] z | [F,A,]z[F,A,C] z | [F,A,C]z[F,A,C] z | A,,[E,A,C] A,,[E,A,C] | %151
 [E,,E,][^G,=B,E] [G,B,E]2 | [E,E]z/[E,,E,]/ (3[E,,E,][F,,F,][^G,,^G,] | [A,,A,]2 z2 | %154
 E,[G,B,C] C,[G,B,C] | E,[G,B,] C,[G,B,C] | F,[A,C] C,[F,A,C] | F,[A,C] C,[F,A,C] | %158
 C,[E,G,C] C,[E,G,C] | [C,,C,][E,G,C] [E,G,C]2 | F,[A,C] C,[F,A,C] | A,,[F,A,C][F,A,C] z | %162
 E,[G,B,C] C,[G,B,C] | E,[G,B,] C,[G,B,C] | F,[A,C] C,[F,A,C] | F,,[F,A,C][F,A,C] z | %166
 [G,,G,][F,,F,][E,,E,][D,,D,] | [C,,C,][=B,,,=B,,][A,,,A,,][G,,,G,,] | [G,,,G,,] z [F,G,=B,]2 | %169
 [E,G,C] z z2 | [F,A,C]z[F,A,C] z | [F,A,C]z[F,A,C] z | [F,A,]z[F,A,C] z | [F,A,C]z[F,A,C] z | %174
 [F,A,C]z[F,A,C] z | [B,,,B,,][F,B,D] [F,B,D] z | C,[G,B,C] E,[G,B,C] | %177
 F,[F,,F,] [C,,C,][A,,,A,,] | [F,,,F,,][F,A,C] C,,[F,A,C] | F,,[F,A,C] C,,[F,A,C] | %180
 F,,[F,A,C] C,,[F,A,C] | F,,[F,A,C] [F,A,C] z | F,,[F,A,C] [A,,,A,,]2 | [B,,,B,,]3 [B,,,B,,] | %184
 [C,,C,]3 [C,,C,] | !>![F,,F,]2 z2 | !>![C,,C,]2 z2 | !>![^C,,^C,]2 z2 | !>![^C,E,G,]2 z2 | %189
 !>![E,G,B,]2 z2 | !>![E,G,B,^C]2 z2 | !arpeggio![E,G,B,^CE]2 !fermata!z2 ||[M:3/4] z2 z | %193
 D,2 [F,A,D]2 [F,A,D]2 | A,,2 [G,A,^C]2 [G,A,C]2 | ^C,2 [E,G,]2 [E,G,B,]2 | D,2 [F,A,D]2 [F,A,D]2 | %197
 (F,,C,[F,A,]C,F,C,) | ([C,E,-G,-]2 [^C,E,G,]) z z2 | !>![D,F,^G,]4 z2 | (D,[F,A,] [F,A,D]2) z2 | %201
 ([D,,D,][^F,A,]D[F,A,]D[F,A,]) | (G,,[^F,A,] [G,B,]) z z2 | (^C,E, A,) z z2 | %204
 (D,F, !arpeggio![F,A,D]) z z2 | (D,[F,A,]D[F,A,]D[F,A,]) | (D,[F,A,]D[F,A,]D[F,A,]) | %207
 (D,[F,A,]D[F,A,]D[F,A,]) | (D,[F,A,] D2) z2 | (D,[F,A,]D[F,A,]D) !fermata!z || %210
[M:3/8] D,,z/D,/A,,/D,/ | D,,z/D,/A,,/D,/ |"^piu animato" D,,z/D,/A,,/D,/ | D,,z/D,/A,,/D,/ | %214
 D,,z/D,/A,,/D,/ | D,,z/D,/A,,/D,/ | D,,z/D,/A,,/D,/ | D,,z/D,/A,,/D,/ | D,,z/D,/A,,/D,/ | %219
 D,,z/D,/A,,/D,/ | F,,z/F,/C,/F,/ | F,,z/F,/C,/F,/ | F,,z/F,/C,/F,/ | F,,z/F,/C,/F,/ | %224
 D,,z/D,/A,,/D,/ | D,,z/D,/A,,/D,/ | A,, z [G,A,^C] | [F,A,D]2 z | F,,z/F,/C,/F,/ | %229
 F,,z/F,/C,/F,/ | F,,z/F,/C,/F,/ | F,,z/F,/C,/F,/ | D,,z/D,/A,,/D,/ | D,,z/D,/A,,/D,/ | %234
 A,, z [G,A,^C] ||[M:4/4] z [B,,B,] [B,,B,]2 z [A,,A,] [A,,A,]2 | %236
 z [^G,,^G,] [G,,G,]2 z !>![=G,,=G,] z !>![^F,,^F,] | %237
 z !>![=F,,=F,] z !>![E,,E,] z !>![D,,D,] z !>![_D,,_D,] | [C,,C,]2 x2 x4 || %239
[M:4/4]"^stacc." .F,, z .[F,A,C] z .[F,A,C] z .[F,A,C] z | C, z [E,G,C] z C,[E,G,C] [F,A,C]2 | %241
 [C,,C,] z [E,G,C] z [E,G,C] z [E,G,C] z | C, z [E,G,C] z C, z [E,G,C] z | %243
"^largamente" .F,, z .[F,A,C] z .[F,A,C] z .[F,A,C] z | [C,,C,] z [E,G,C] z [F,A,C]2 z2 | %245
 [A,,A,]3 E, A,,2 [E,A,C]2 | [E,,E,]2 [^G,=B,D]2 [A,C]2 z2 | %247
"^stacc." .[C,,C,] z .[E,G,C] z .[E,G,C] z .[E,G,C] z | F,, z [F,A,C] z F,, z [F,A,C] z | %249
 C, z [E,G,C] z F,, z [F,A,C] z | C, z [E,G,C] z F,, z [F,A,C] z | %251
"^larg." [C,,C,] z [E,G,C] z [E,G,C] z [E,G,C] z | F,, z [E,G,C] z [F,A,C]4 | %253
 [G,,G,]3 G,, [C,,C,]3 [E,,E,] | [G,,G,]3 [G,,,G,,] [C,,C,]2 z2 | %255
[K:treble] z [GB] [GB]2 z [FA] [FA]2 |"^rall" z [EG] [EG]4 z2 || %257
[M:3/4][K:bass] [B,,,B,,]2 [F,B,D]2 [F,B,D]2 | [B,,,B,,]2 [F,B,D]2 [F,B,D]2 | %259
 [B,,,B,,]2 [F,B,D]2 [F,B,D]2 | [B,,,B,,]2 [F,B,D]2 [F,B,D]2 | F,,2 [F,A,C]2 [F,A,C]2 | %262
 C,,2 [F,A,C]2 [F,A,C]2 | F,,2 [F,A,C]2 [F,A,C]2 | F,,2 [F,A,C]2 [F,A,C]2 | E,2 [G,B,C]2 [G,B,C]2 | %266
 C,2 [G,B,C]2 [G,B,C]2 | E,2 [G,B,C]2 [G,B,C]2 | C,2 [G,B,C]2 [G,B,C]2 | %269
 C,2 [E,G,B,][E,G,B,] [E,G,B,]2 | [E,G,B,]2 [E,G,B,]2 [E,G,B,]2 | [F,A,]2 A,,2 C,2 | F,,2 z4 | %273
 [B,,,B,,]2 [F,B,D]2 [F,B,D]2 | [B,,,B,,]2 [F,B,D]2 [F,B,D]2 | [B,,,B,,]2 [F,B,D]2 [F,B,D]2 | %276
 [B,,,B,,]2 [F,B,D]2 [F,B,D]2 | F,,2 [F,A,C]2 [F,A,C]2 | C,,2 [F,A,C]2 [F,A,C]2 | %279
 F,,2 [F,A,C]2 [F,A,C]2 | F,,2 [F,A,C]2 [F,A,C]2 | C,2 [E,G,C]2 [E,G,C]2 | z2 [F,A,C]2 z2 | %283
 z2 [E,G,C]2 z2 | z2 [F,A,C]2 z2 | z2 [E,G,C]2 z2 | z2 [F,A,C]2 z2 | !fermata![^C,,^C,]2 z8 z2 || %288
[M:4/4] D,,[K:treble] D[FA]D[K:bass] D,,[K:treble] D[FA]D | %289
[K:bass] D,,[K:treble] D[FA]D[K:bass] D,,[K:treble] D[FA]D | %290
[K:bass] [G,,,G,,][K:treble] D[GB]D [GB] z z2 |[K:bass] [A,,,A,,][K:treble] E[A^c]E [Ac] z z2 | %292
[K:bass] D,,[K:treble] D[FAd]D[K:bass] D,,[K:treble] D[FA]D | %293
[K:bass] D,,[K:treble] D[FA]D[K:bass] D,,[K:treble] D[FA]D | %294
[K:bass] [B,,,B,,][K:treble] F[Bd]F [Bd] z z2 | %295
[K:bass] [C,,C,][K:treble] E[GB]E[K:bass] C,,[K:treble] C[EG]C | %296
[K:bass] [F,,,F,,][K:treble] C[FA][Ac] f2 z2 | %297
[K:bass] (3[B,,,B,,][F,B,D][F,B,D] (3[F,B,D][F,B,D][F,B,D] (3[F,B,D][F,B,D][F,B,D] (3[F,B,D][F,B,D][F,B,D] | %298
 (3[F,,,F,,][F,A,C][F,A,C] (3[F,A,C][F,A,C][F,A,C] (3[F,A,C][F,A,C][F,A,C] (3[F,A,C][F,A,C][F,A,C] | %299
 (3[B,,,B,,][F,B,D][F,B,D] (3[F,B,D][F,B,D][F,B,D] (3[F,B,D][F,B,D][F,B,D] (3[F,B,D][F,B,D][F,B,D] | %300
 (3[F,,,F,,][F,A,C][F,A,C] (3[F,A,C][F,A,C][F,A,C] (3[F,A,C][F,A,C][F,A,C] (3[F,A,C][F,A,C][F,A,C] | %301
 (3[A,,,A,,][E,A,^C][E,A,C] (3[E,A,C][E,A,C][E,A,C] (3[E,A,C][E,A,C][E,A,C] (3[E,A,C][E,A,C][E,A,C] | %302
 [E,A,^C]2 x4[I:staff -1] (A/4B/4=B/4c/4^c/4d/4^d/4e/4) || %303
[M:2/4]"^stacc."!p![I:staff +1] [F,A,C] z [F,A,C] z | .[E,G,B,].[E,G,B,] .[F,A,]2 | %305
 .[E,G,].[E,G,] .[F,A,].[F,A,] | .C,.C, F,2 | [F,,,F,,] z [F,A,C] z | [G,B,][G,B,] [F,A,]2 | %309
 [C,E,G,][C,E,G,] [C,F,A,][C,F,A,] | [C,,C,][C,,C,] [F,,F,]2 | [F,,,F,,] z [F,A,C] z | %312
 [E,G,B,][E,G,B,] [F,A,]2 | [C,E,G,][C,E,G,] [C,F,A,][C,F,A,] | [C,,C,][C,,C,] [F,,F,] z | %315
 [D,F,^G,=B,][D,F,G,B,][D,F,G,B,][D,F,G,B,] | [D,F,^G,=B,][D,F,G,B,][D,F,G,B,][D,F,G,B,] | %317
 [D,F,^G,=B,][D,F,G,B,][D,F,G,B,][D,F,G,B,] | [D,F,^G,=B,][D,F,G,B,][D,F,G,B,][D,F,G,B,] | %319
 z [D,F,^G,=B,] [D,F,G,B,]2 | z [E,A,C] [E,A,C]2 | z [D,F,^G,=B,] [D,F,G,B,]2 | %322
 z [E,A,C] [E,A,C]2 | [E,G,A,^C][E,G,A,C][E,G,A,C][E,G,A,C] | %324
 [E,G,A,^C][E,G,A,C][E,G,A,C][E,G,A,C] | [E,G,A,^C][E,G,A,C][E,G,A,C][E,G,A,C] | %326
 !fermata![A,,,A,,]4 ||[M:4/4] D,,2 [F,A,]2 D,,2 [F,A,]2 | D,,2 [F,A,]2 D,,2 [F,A,]2 | %329
 D,,2 [F,A,]2 D,,2 [F,A,]2 | D,,2 [F,A,]2 D,,2 [F,A,]2 | F,,2 [F,A,C]2 F,,2 [F,A,C]2 | %332
 C,,2 [E,G,C]2 [G,A,^C]2 z2 ||[M:3/4] [F,A,D][F,A,D] [G,A,^C]2 !fermata![G,A,C] z | %334
 [F,A,][F,A,] [F,A,]2 !fermata![D,,D,]2 ||[M:3/8]"^con. anima." [D,,D,]z[F,A,D] | [D,,D,]z[F,A,D] | %337
 [D,,D,]z[F,A,D] | [D,,D,]z[F,A,D] | !>![G,,G,] !>![G,,G,]2 | [D,,D,] z [^F,A,D] | %341
 [G,=B,D] [G,B,D]2 | [G,,G,] z2 | [D,,D,]z[F,A,D] | [D,,D,]z[F,A,D] | [D,,D,]z[F,A,D] | %346
 [D,,D,]z[F,A,D] ||[M:3/4] [G,,G,]D, [G,,,G,,]2 [D,,D,]2 | %348
 [G,,G,]2 [D,,D,]2 !fermata![G,,,G,,] !fermata!z | [F,,F,][F,,F,] [C,,C,]2 !fermata![^C,,^C,] z | %350
 [D,,D,][D,,D,] !fermata![D,,D,]4 | [B,,B,]>[B,,B,] !fermata![G,,G,]4 |[K:treble] B>B !fermata!G4 | %353
[K:bass] [_A,,,_A,,]>[G,,,G,,] !fermata![G,,,G,,]4 | _A,>G, !fermata![G,,G,]4 || %355
[K:Eb][M:6/8]"^legato." ([C,,C,]G,C A,G,C) | ([C,,C,]G,C A,G,C) | %357
"^dolce.""_segue." ([C,,C,]G,C A,G,C) | ([C,,C,]G,C A,G,C) | B,,F,B, A,F,B, | [E,,E,]G,B, A,E,B, | %361
 ([C,,C,]G,C A,G,C) | A,,E,C A,E,C | [D,F,B,] z z !fermata![B,,,B,,]3 | [E,,E,]G,B, E,2"^piu" z | %365
 B,,[A,B,D][A,B,D] [A,B,D] z2 | [E,,E,][G,B,E][G,B,E] (E,/G,/F,/E,/D,/C,/) | %367
 B,,[A,B,D][A,B,D] [A,B,D] z2 | [E,,E,][G,B,E][G,B,E] (E,/G,/F,/E,/D,/C,/) | %369
 =B,,[F,G,=B,][F,G,B,] [F,G,B,] z2 | [C,,C,][E,G,C][E,G,C] A,,[E,A,C][E,A,C] | %371
 _B,,[A,_B,D][A,B,D] [B,,,B,,][A,B,D][A,B,D] | E,,G,,B,, (E,/G,/F,/E,/D,/C,/) | %373
 B,,[A,B,D][A,B,D] [A,B,D] z2 | [E,,E,][G,B,E][G,B,E] (E,/G,/F,/E,/D,/C,/) | %375
 B,,[A,B,D][A,B,D] [A,B,D] z2 | [E,,E,][G,B,E][G,B,E] (E,/G,/F,/E,/D,/C,/) | %377
 =B,,[F,G,=B,][F,G,B,] [F,G,B,] z2 | [C,,C,][E,G,C][E,G,C] [A,,,A,,][E,A,C][E,A,C] | %379
 [_B,,,_B,,]"^rallent."[A,_B,D][A,B,D] [A,B,D] z2 |"^a tempo" (E,B,,G,, E,,) z2 | %381
 (B,,C,>D, E,2) z | (D,E,>F, F,2 G,) | z [DF]2 z [CE]2 ||[K:C][M:2/4] z4 | z4 |: %386
 C,[E,G,C] G,,[E,G,C] | C,[E,G,C] G,,[E,G,C] | B,,[F,G,B,] G,,[F,G,B,] | C,[E,G,C][E,G,C] z | %390
 C,[E,G,C] G,,[E,G,C] | C,[E,G,C] G,,[E,G,C] | B,,[F,G,B,] G,,[F,G,B,] |1 [E,G,C]G, [C,,C,] z :|2 %394
 [E,G,C][G,,G,] [C,,C,] z || z [E,,E,] [A,,,A,,] z | z [E,,E,] [A,,,A,,] z | %397
 A,,[E,A,C] F,,[^G,B,D] | E,,[^G,B,E][G,B,E] z | z [E,,E,] [A,,,A,,] z | z [E,,E,] [A,,,A,,] z | %401
 D,,[^F,A,D][F,A,D] z | G,,[G,B,D]/[G,B,D]/ [G,B,D] z | z G,G,, z | z G,G,, z | %405
 [G,B,D][G,C_E] [G,B,D][G,CE] | [G,B,D] z z2 | C,[E,G,C] G,,[E,G,C] | C,[E,G,C] G,,[E,G,C] | %409
 B,,[F,G,B,] G,,[F,G,B,] | C,[E,G,C][E,G,C] z | C,[E,G,C] G,,[E,G,C] | C,[E,G,C] G,,[E,G,C] | %413
 B,,[F,G,B,] G,,[F,G,B,] | [E,G,C] z [F,G,B,] z | [E,G,C] z [F,G,B,] z | [E,G,C]2 [C,C]2 | %417
 [G,,G,]2 [E,,E,]2 | [C,,C,]2 z2 | [E,G,C]2 z2 | !>![C,,C,]2 !>![C,,C,]2 | %421
"^Fine" !fermata![C,,C,]4 |][K:G][M:3/4]!p! z2 [E,,B,,]2 [E,G,]2 | z2 [E,,E,]2 [E,G,B,]2 | %424
 z2 [B,,,B,,]2 [^D,F,A,]2 | z2 [B,,,B,,]2 [^D,F,B,]2 | z2 [A,,,A,,]2 [C,F,A,]2 | %427
 z2 [B,,,B,,]2 [E,G,B,]2 | z2 [A,,,A,,]2 [E,A,C]2 | (3B,,,/^D,,/F,,/(3B,,/^D,/F,/ !fermata!B,2 z2 | %430
 z2 [E,,B,,]2 [E,G,]2 | z2 [E,,E,]2 [E,G,B,]2 | z2 [B,,,B,,]2 [^D,F,B,]2 | z2 [B,,^D,F,B,]2 z2 | %434
 z2 C,,2 [C,E,F,]2 | !arpeggio![B,,D,G,B,]2 z2 !arpeggio![A,,E,C]2 | [B,,^D,A,]2 z2 z2 | %437
 z2 !fermata![E,,B,,G,]4 |: (E,B,G,B,) E z | (E,B,G,B,) E z | (E,B,G,B,) E z | %441
 (G,B,) !fermata!E2 z2 | [B,,^D,F,B,]4 z2 | [E,G,B,E]4 z2 | [B,^DA]4 z2 |1 %445
 !arpeggio!!fermata![E,,B,,E,]4 z2 :|2 !arpeggio![E,,B,,E,]4 z2 |: (D,F, A,F, D) z | %448
 (D,F, A,F, D) z | (F,A, CA, F) z | (F,A, CA, F) z | ([E,,E,] G,B,G, E) z | ([E,,E,] G,B,G, E) z | %453
 [A,,,A,,]3 [A,,C,F,] [^A,,^C,G,][A,,C,G,] | !arpeggio!!fermata![B,,^D,F,B,]4 z2 | (D,F,A,F, D) z | %456
 (D,F,A,F, D) z | (F,A,CA, F) z | (F,A,CA, F) z | ([E,,E,] G,B,G, E) z | %460
 ([E,,E,] G,[E,G,B,E]) z z2 | [B,,E,G,]4 [B,,^D,A,]2 |1 !arpeggio![E,,B,,G,]4 z2 :|2 %463
 !arpeggio![E,,B,,G,]4 z2 ||!p! [E,,B,,]2 [E,G,]2 z2 | [E,,B,,]2 [E,G,B,]2 z2 | %466
 [B,,,B,,]2 [^D,F,B,]2 z2 | [B,,,B,,]2 [^D,F,B,]2 z2 | [A,,,A,,]2 [C,F,A,]2 z2 | %469
 [B,,,B,,]2 [E,G,B,]2 z2 | [A,,,A,,]2 [C,E,F,]2 (3[^C,E,]F,G, | %471
 (3B,,,/^D,,/F,,/(3B,,/^D,/F,/ !fermata!B,2 z2 | [E,,E,]2 [E,G,B,]2 z2 | [E,,E,]2 [E,G,B,]2 z2 | %474
 [B,,,B,,]2 [^D,F,B,]2 z2 | [B,,,B,,]2 [^D,F,B,]2 z2 | [E,,,E,,]2 [E,A,C]2 z2 | %477
 [B,,E,G,B,]2 z2 [A,,C,F,A,]2 | [B,,^D,F,B,]2 z2 !fermata!z2 | !fermata![E,B,E]6 |: %480
[M:4/4] [E,^G,]2 z2 [E,G,B,]2 z2 | [C,E,G,]EEE E2 z2 | [A,C]2 z2 [A,CE]2 z2 | [A,C]EEE E2 z2 | %484
 ([B,,-D,-=F,]2 [B,,D,E,]) z ([B,,-D,-F,]2 [B,,D,E,]) z | [D=F]2 [B,DE] z [B,DF]2 [B,DE] z | %486
 z2[K:treble] [Bb]2 e [Bb]2 e | [Bb]e[Bb]e !fermata![Bb]4 ||[M:3/4][K:bass] B,,2 [C^DF]4 | %489
 B,,2 [CEG]4 | B,,2 [B,^DA]4 | [EG]2 z4 | B,,2 [C^DF]4 | B,,2 [CEG]4 | B,,2 [B,^DA]4 |1 [EG]4 z2 :| %496
[M:4/4] [E,G,B,] z [E,G,B,] z [E,G,B,] z [E,G,B,] z | [E,G,B,] z [E,G,B,] z [E,G,B,] z [E,G,B,] z | %498
 [E,G,B,] z [E,G,B,] z [E,G,B,] z z2 | [G,,B,,D,G,]2 z2 [A,,C,F,]2 z2 | [B,,^D,F,A,]2 z2 z4 | %501
 [B,,^D,F,A,]2 z2 z4 | [B,,^D,F,A,]2 z2 z4 | z4 z2 B,,/F,/B,/^D/ || %504
[M:3/4][K:treble] !arpeggio![B,^DFB]4 z2 |[K:bass]"^sting." B,,2 [C^DF]4 | B,,2 [CEG]4 | %507
 B,,2 [B,^DA]4 | [EG]2 z4 | B,,2 [CEF]4 | B,,2 [CEG]4 | B,,2 [B,^DA]4 | [EG]4 !fermata!z2 || %513
 [E,,B,,]2 [E,G,]2 z2 | [E,,B,,]2 [E,G,B,]2 z2 | [B,,,B,,]2 [^D,F,B,]2 z2 | %516
 [B,,,B,,]2 [^D,F,B,]2 z2 | [A,,,A,,]2 [C,F,A,]2 z2 | [B,,,B,,]2 [E,G,B,]2 z2 | %519
 [A,,,A,,]2 [C,E,F,]2 (3[^C,E,]F,G, | (3(B,,,/^D,,/F,,/(3B,,/^D,/F,/) !fermata!B,2 z2 | %521
 [E,,E,]2 [E,G,B,]2 z2 | [E,,E,]2 [E,G,B,]2 z2 | [B,,,B,,]2 [^D,F,B,]2 z2 | %524
 [B,,,B,,]2!f! [^D,F,B,]2 z2 | [C,,C,]2 [E,A,C]2 z2 | [B,,E,G,B,]2 z2 [A,,C,F,A,]2 | %527
 [B,,^D,F,B,]2 z2 !fermata!z2 | !fermata![E,B,E]4 z2 || (E,B,G,B,) E z | (E,B,G,B,) E z | %531
 (E,B,G,B,) E z | (G,B,) !fermata!E2 z2 | !fermata![B,,^D,F,B,]4 z2 | [E,G,B,E]4 z2 | %535
 !fermata![B,^DA]4 z2 | (E,B,G,B,) E z | (E,B,G,B,) E z | (E,B,G,B,) E z | (E,B,G,B,) E z | %540
 (G,B,) !fermata!E2 z2 |"^molto" !fermata![B,,^D,F,B,]4 z2 | !fermata![E,G,B,]4 z2 | %543
"^ral. r. dim" !fermata![B,,^D,B,]4 z2 | %544
 [E,,B,,E,]2!pp! (12:2:12(E,,G,,B,,E,G,B,[I:staff -1]EGBegb) !fermata!e'2 |] %545
V:3
 x52 ||[M:6/8] x | x6 | x6 | x3 F3 | x6 | x6 | x6 | x6 | x6 | x6 | x6 | x3 F3 | x6 | x6 | x6 | %16
 x6 ||[M:3/8] x3 | x3 | x3 | x3 | x3 | x3 | x3 | x3 | x3 | x3 | x3 | x3 | x3 | x3 | x3 | x3 || x3 | %34
 x3 | x3 | x3 | x3 | x3 | x3 | x3 | x3 | x3 | x3 | x3 | x3 | x3 | x3 | x3 |: x3 | x3 | x3 | x3 | %53
 x3 | x3 | x3 | x3 | x3 | x3 | x3 | x3 | x3 | x3 | x3 | x3 :: x3 | x3 | x3 | x3 | x3 | x3 |1 x3 | %72
 x3 :|2 x3 | x3 |: x3 | x3 | x3 | x3 | x3 | x3 | x3 | x3 | x3 | x3 | x3 | x3 | x3 | x3 | x3 | x3 :| %91
[M:4/4] x8 | x8 | x8 | x8 | x8 | x8 ||[K:C][M:3/4] x6 | x6 | x6 | x6 | x6 | x6 | x6 | x6 | x6 | %106
 x6 | x6 | x6 | x6 | x6 | x6 | x6 ||[M:4/4] x8 | x8 | x8 | x8 | x8 | x8 | x8 | x24 ||[M:3/4] x6 | %122
 x6 | x6 | x6 | x6 | x6 | x6 | x6 | x6 | x6 | x6 | x6 | x6 | x6 | x6 ||[K:F][M:2/4] x4 | x4 | x4 | %139
 x4 | x4 | x4 | x4 | x4 | x4 | x4 | x4 | x4 | x4 | x4 | x4 | x4 | x4 | x4 | x4 | x4 | x4 | x4 | %158
 x4 | x4 | x4 | x4 | x4 | x4 | x4 | x4 | x4 | x4 | x4 | x4 | x4 | x4 | x4 | x4 | x4 | x4 | x4 | %177
 x4 | x4 | x4 | x4 | x4 | x4 | x4 | x4 | x4 | x4 | x4 | x4 | x4 | x4 | x4 ||[M:3/4] x3 | x6 | x6 | %195
 x6 | x6 | x6 | x6 | x6 | x6 | x6 | x6 | x6 | x6 | x6 | x6 | x6 | x6 | x6 ||[M:3/8] x3 | x3 | x3 | %213
 x3 | x3 | x3 | x3 | x3 | x3 | x3 | x3 | x3 | x3 | x3 | x3 | x3 | x3 | x3 | x3 | x3 | x3 | x3 | %232
 x3 | x3 | x3 ||[M:4/4] x8 | x8 | x8 | x8 ||[M:4/4] x8 | x8 | x8 | x8 | x8 | x8 | x8 | x8 | x8 | %248
 x8 | x8 | x8 | x8 | x8 | x8 | x8 | x8 | x8 ||[M:3/4] x6 | x6 | x6 | x6 | x6 | x6 | x6 | x6 | x6 | %266
 x6 | x6 | x6 | x6 | x6 | x6 | x6 | x6 | x6 | x6 | x6 | x6 | x6 | x6 | x6 | x6 | x6 | x6 | x6 | %285
 x6 | x6 | x12 ||[M:4/4] x7[K:bass] x | x8 | x8 | x8 | x8 | x8 | x8 | x8 | x6[K:treble] x2 | x8 | %298
 x8 | x8 | x8 | x8 | x8 ||[M:2/4] x4 | x4 | x4 | x4 | x4 | x4 | x4 | x4 | x4 | x4 | x4 | x4 | x4 | %316
 x4 | x4 | x4 | x4 | x4 | x4 | x4 | x4 | x4 | x4 | x4 ||[M:4/4] x8 | x8 | x8 | x8 | x8 | x8 || %333
[M:3/4] x6 | x6 ||[M:3/8] x3 | x3 | x3 | x3 | x3 | x3 | x3 | x3 | x3 | x3 | x3 | x3 ||[M:3/4] x6 | %348
 x6 | x6 | x6 | x6 | x6 |[K:bass] x6 |[K:treble] x6 ||[K:Eb][M:6/8] x6 | x6 | x6 | x6 | x6 | x6 | %361
 x6 | x6 | x6 | x6 | x6 | x6 | x6 | x6 | x6 | x6 | x6 | x6 | x6 | x6 | x6 | x6 | x6 | x6 | x6 | %380
 x6 | x6 | x6 | x6 ||[K:C][M:2/4] x4 | x4 |: x4 | x4 | x4 | x4 | x4 | x4 | x4 |1 x4 :|2 x4 || x4 | %396
 x4 | x4 | x4 | x4 | x4 | x4 | x4 | x4 | x4 | x4 | x4 | x4 | x4 | x4 | x4 | x4 | x4 | x4 | x4 | %415
 x4 | x4 | x4 | x4 | x4 | x4 | x4 |][K:G][M:3/4] x6 | x6 | x6 | x6 | x6 | x6 | x6 | x6 | x6 | x6 | %432
 x6 | x6 | x6 | x6 | x6 | x6 |: x6 | x6 | x6 | x6 | x6 | x6 | x6 |1 x6 :|2 x6 |: x6 | x6 | x6 | %450
 x6 | x6 | x6 | x6 | x6 | x6 | x6 | x6 | x6 | x6 | x6 | x6 |1 x6 :|2 x6 || x6 | x6 | x6 | x6 | x6 | %469
 x6 | x6 | x6 | x6 | x6 | x6 | x3!8va(! x3 | x6 | x6!8va)! | x6 | %479
 G (7:4:1x x9/64 (7:4:3B3/8A/8 x0 G4 |:[M:4/4] x8 | x8 | x8 | x8 | x8 | x4!8va(! x4 | x8 | %487
 x8!8va)! ||[M:3/4] x6 | x6 | x6 | x6 | x6 | x6 | x6 |1 x6 :|[M:4/4] x8 | x8 | x8 | x8 | x8 | x8 | %502
 x8 |!8va(! x8!8va)! ||[M:3/4] x6 | x6 | x6 | x6 | x6 | x6 | x6 | x6 | x6 || x6 | x6 | x6 | x6 | %517
 x6 | x6 | x6 | x6 | x6 | x6 | x6 | x3!8va(! x3 | x6 | x6!8va)! | x6 | %528
 x (7:4:1x x9/64 (7:4:3B3/8A/8 x0 G4 || x6 | x6 | x6 | x6 | x6 | x6 | x6 | x6 | x6 | x6 | x6 | x6 | %541
 x6 | x6 | x6 | x6 |] %545
V:4
 x52 ||[M:6/8] x | x6 | x6 | x6 | x6 | x6 | x6 | x6 | x6 | x6 | x6 | x6 | x6 | x6 | x6 | x6 || %17
[M:3/8] x3 | x3 | x3 | x3 | x3 | x3 | x3 | x3 | x3 | x3 | x3 | x3 | x3 | x3 | x3 | x3 || x3 | x3 | %35
 x3 | x3 | x3 | x3 | x3 | x3 | x3 | x3 | x3 | x3 | x3 | x3 | x3 | x3 |: x3 | x3 | x3 | x3 | x3 | %54
 x3 | x3 | x3 | x3 | x3 | x3 | x3 | x3 | x3 | x3 | x3 :: x3 | x3 | x3 | x3 | x3 | x3 |1 x3 | x3 :|2 %73
 x3 | x3 |: x3 | x3 | x3 | x3 | x3 | x3 | x3 | x3 | x3 | x3 | x3 | x3 | x3 | x3 | x3 | x3 :| %91
[M:4/4] x8 | x8 | x8 | x8 | x8 | x8 ||[K:C][M:3/4] x6 | x6 | x6 | x6 | x6 | x6 | x6 | x6 | x6 | %106
 x6 | x6 | x6 | x6 | x6 | x6 | x6 ||[M:4/4] x8 | x8 | x8 | x8 | x8 | x8 | x8 | x24 ||[M:3/4] x6 | %122
 x6 | x6 | x6 | x6 | x6 | x6 | x6 | x6 | x6 | x6 | x6 | x6 | x6 | x6 ||[K:F][M:2/4] x4 | x4 | x4 | %139
 x4 | x4 | x4 | x4 | x4 | x4 | x4 | x4 | x4 | x4 | x4 | x4 | x4 | x4 | x4 | x4 | x4 | x4 | x4 | %158
 x4 | x4 | x4 | x4 | x4 | x4 | x4 | x4 | x4 | x4 | x4 | x4 | x4 | x4 | x4 | x4 | x4 | x4 | x4 | %177
 x4 | x4 | x4 | x4 | x4 | x4 | x4 | x4 | x4 | x4 | x4 | x4 | x4 | x4 | x4 ||[M:3/4] x3 | x6 | x6 | %195
 x6 | x6 | x6 | x6 | x6 | x6 | x6 | x6 | x6 | x6 | x6 | x6 | x6 | x6 | x6 ||[M:3/8] x3 | x3 | x3 | %213
 x3 | x3 | x3 | x3 | x3 | x3 | x3 | x3 | x3 | x3 | x3 | x3 | x3 | x3 | x3 | x3 | x3 | x3 | x3 | %232
 x3 | x3 | x3 ||[M:4/4] x8 | x8 | x8 | x8 ||[M:4/4] x8 | x8 | x8 | x8 | x8 | x8 | x8 | x8 | x8 | %248
 x8 | x8 | x8 | x8 | x8 | x8 | x8 |[K:treble] x8 | x8 ||[M:3/4][K:bass] x6 | x6 | x6 | x6 | x6 | %262
 x6 | x6 | x6 | x6 | x6 | x6 | x6 | x6 | x6 | x6 | x6 | x6 | x6 | x6 | x6 | x6 | x6 | x6 | x6 | %281
 x6 | x6 | x6 | x6 | x6 | x6 | x12 ||[M:4/4] x[K:treble] x3[K:bass] x[K:treble] x3 | %289
[K:bass] x[K:treble] x3[K:bass] x[K:treble] x3 |[K:bass] x[K:treble] x7 |[K:bass] x[K:treble] x7 | %292
[K:bass] x[K:treble] x3[K:bass] x[K:treble] x3 |[K:bass] x[K:treble] x3[K:bass] x[K:treble] x3 | %294
[K:bass] x[K:treble] x7 |[K:bass] x[K:treble] x3[K:bass] x[K:treble] x3 |[K:bass] x[K:treble] x7 | %297
[K:bass] x8 | x8 | x8 | x8 | x8 | x8 ||[M:2/4] x4 | x4 | x4 | x4 | x4 | x4 | x4 | x4 | x4 | x4 | %313
 x4 | x4 | x4 | x4 | x4 | x4 | x4 | x4 | x4 | x4 | x4 | x4 | x4 | x4 ||[M:4/4] x8 | x8 | x8 | x8 | %331
 x8 | x8 ||[M:3/4] x6 | x6 ||[M:3/8] x3 | x3 | x3 | x3 | x3 | x3 | x3 | x3 | x3 | x3 | x3 | x3 || %347
[M:3/4] x6 | x6 | x6 | x6 | x6 |[K:treble] x6 |[K:bass] x6 | x6 ||[K:Eb][M:6/8] x6 | x6 | x6 | x6 | %359
 x6 | x6 | x6 | x6 | x6 | x6 | x6 | x6 | x6 | x6 | x6 | x6 | x6 | x6 | x6 | x6 | x6 | x6 | x6 | %378
 x6 | x6 | x6 | x6 | x6 | x6 ||[K:C][M:2/4] x4 | x4 |: x4 | x4 | x4 | x4 | x4 | x4 | x4 |1 x4 :|2 %394
 x4 || x4 | x4 | x4 | x4 | x4 | x4 | x4 | x4 | x4 | x4 | x4 | x4 | x4 | x4 | x4 | x4 | x4 | x4 | %413
 x4 | x4 | x4 | x4 | x4 | x4 | x4 | x4 | x4 |][K:G][M:3/4] x6 | x6 | x6 | x6 | x6 | x6 | x6 | x6 | %430
 x6 | x6 | x6 | x6 | x6 | x6 | x6 | x6 |: E,4- E, x | E,4- E, x | E,4- E, x | E,4 x2 | x6 | x6 | %444
 x6 |1 x6 :|2 x6 |: x6 | x6 | x6 | x6 | x6 | x6 | x6 | x6 | x6 | x6 | x6 | x6 | x6 | x6 | x6 |1 %462
 x6 :|2 x6 || x6 | x6 | x6 | x6 | x6 | x6 | x6 | x6 | x6 | x6 | x6 | x6 | x6 | x6 | x6 | x6 |: %480
[M:4/4] x8 | x8 | x8 | x8 | x8 | x8 | x2[K:treble] x6 | x8 ||[M:3/4][K:bass] x6 | x6 | x6 | x6 | %492
 x6 | x6 | x6 |1 x6 :|[M:4/4] x8 | x8 | x8 | x8 | x8 | x8 | x8 | x8 ||[M:3/4][K:treble] x6 | %505
[K:bass] x6 | x6 | x6 | x6 | x6 | x6 | x6 | x6 || x6 | x6 | x6 | x6 | x6 | x6 | x6 | x6 | x6 | x6 | %523
 x6 | x6 | x6 | x6 | x6 | x6 || E,4- E, x | E,4- E, x | E,4- E, x | E,4 x2 | x6 | x6 | x6 | %536
 E,4- E, x | E,4- E, x | E,4- E, x | E,4- E, x | E,4 x2 | x6 | x6 | x6 | x6 |] %545

